X:1
T:The Wings of a Dove
T:The Wings of a Dove
T:Caroline  L. Goodenough
T:Caroline  L. Goodenough, 1914
T:Public Domain Courtesy of the Cyber Hymnal™
C:Caroline  L. Goodenough
Z:Public Domain
Z:Courtesy of the Cyber Hymnal™
%%score ( 1 2 ) ( 3 4 )
L:1/8
Q:1/4=112
M:3/4
K:F
V:1 treble 
V:2 treble 
V:3 bass 
V:4 bass 
V:1
 [Ac]2 | [Ac]3 [^G=B] [Ac][_Bd] | [Ac]4 [FA]2 | [CA]3 [=B,^G] [CA][D_B] | [CA]4 [CF]2 | %5
 [EG]3 [^D^F] [EG][=FA] | [GB]4 [Ec]2 | [FA]6- | [FA]2 z2 [Bc]2 | [Ac]3 [^G=B] [Ac][_Bd] | %10
 [Ac]4 [FA]2 | [CA]3 [=B,^G] [CA][D_B] | [CA]4 [CF]2 | [EG]3 [^D^F] [EG][=FA] | [GB]4 [B,E]2 | %15
 [A,F]6- | [A,F]2 z2 ||"^Refrain" F2 | [CE][DF] [EG][FA] [GB][Ac] | [Be]4 [Bd][Bd] | [Ac]6- | %21
 [Ac]4 [FA]2 | [EG]3 [FA] [GB][Ac] | [Be]4 [Bd]2 | [Ac-]6 | [Bc]4 [Bc]2 | [Ac]3 [^G=B] [Ac][_Bd] | %27
 [Ac]4 [FA]2 | [CA]3 [=B,^G] [CA] _B2 | [CA]4 [DF]2 | G3 ^F GA | [DB]4 [B,CE]2 | [A,CF]6- | %33
 [A,CF]4 |] %34
V:2
 x2 | x6 | x6 | x6 | x6 | x6 | x6 | x6 | x6 | x6 | x6 | x6 | x6 | x6 | x6 | x6 | x4 || F2 | x6 | %19
 x6 | x6 | x6 | x6 | x6 | x6 | x6 | x6 | x6 | x5 D x | x6 | D4 D2 | x6 | x6 | x4 |] %34
V:3
 z2 | F,2 [A,C]2 [A,C]2 | F,2 [A,C]2 [A,C]2 | C,2 [F,A,]2 [F,A,]2 | C,2 [F,A,]2 [F,A,]2 | %5
 C,2 [E,B,]2 [E,B,]2 | C,2 [G,C]2 [G,C]2 | F,2 E,2 D,2 | C,2 B,,2 G,,2 | F,2 [A,C]2 [A,C]2 | %10
 F,2 [A,C]2 [A,C]2 | C,2 [F,A,]2 [F,A,]2 | C,2 [F,A,]2 [F,A,]2 | C,2 [E,B,]2 [E,B,]2 | %14
 C,2 [G,C]2 G,2 | F,2 C,2 A,,2 | F,,2 z2 || z2 | C,2 [G,C]2 [G,C]2 | C,2 [G,C]2 [G,C]2 | %20
 F,,2 [F,A,C]2 [F,A,D]2 | [F,A,C]2 [F,A,]2 F,2 | C,2 [G,B,C]2 [E,G,C]2 | C,2 [G,C]2 [E,G,C]2 | %24
 F,,2 [F,A,C]2 [F,A,C]2 | G,,2 [G,B,CE]2 DE | F,2 [A,CF]2 [A,CF]2 | F,2 [A,CF]2 [A,C]2 | %28
 C,2 [F,A,]2 [F,A,]2 x | C,2 [F,A,]2 [D,A,]2 | z2 G,[C,A,] [B,,G,][A,,^F,] | [G,,G,]4 [C,G,]2 | %32
 z2 C,2 A,,2 | F,,4 |] %34
V:4
 x2 | x6 | x6 | x6 | x6 | x6 | x6 | x6 | x6 | x6 | x6 | x6 | x6 | x6 | x6 | x6 | x4 || x2 | x6 | %19
 x6 | x6 | x4 F,2 | x6 | x6 | x6 | x4 [G,B,]2 | x6 | x6 | x7 | x6 | B,,3 x3 | x6 | x6 | x4 |] %34

